X: 6310
T: Carrickalinga Crab Dance, The
R: jig
M: 6/8
K: Dminor
A|:DEF G2^G|A2c c2A|c2^c ^c2^c|^c2d d2A|
DEF G2^G|A2c c2A|d2c cAG|F2D D3:|
|:dcA c2^c|d2f f2d|f2g g3|^g=gf gfd|
dcA c2^c|d2f f2d|d2c cAG|F2D D3:|

